X: 40
T: Walk Along John to Kansas
B: canberra pickers and fiddlers
B: tunes
M:2/2
L:1/4
Q: 1/2=100
K:A
V:1 
|: A/G/ | F/G/A/B/ AF | EC- CA | B2 B>A | E/F/A AA/G/ |
F/G/A/B/ AF | EC- CE | E/F/E C>B, | B,A,-A, :|
|: A/B/ | cc/B/ AA/B/ | ce- ee- | ee/f/ ee/c/ | BA- AA/B/ | cc/B/ AA/B/ |
c/d/e a-a/g/ | fg a>f | ec- ce | e/f/e c>B | BA- A :|]
% abcbook-tune_id 63da5934255a8803fb33ebf3
% abcbook-tune_composer_id 
% abcbook-link-0 https://www.youtube.com/watch?v=yUaITM8O3L4
% abcbook-link-start-at-0 27
% abcbook-boost 0
% abcbook-difficulty 0
% abcbook-tags canberra pickers and fiddlers,old time tunes,© free
% abcbook-tablature 
% abcbook-transpose 
% abcbook-tuning AEAE
% abcbook-lastupdated 1677375788717
% abcbook-src-url https://tunebook.net/scrape/tunes.abc
% abcbook-soundfonts 
% abcbook-repeats 1
%%gchordfont "itim-music,Itim" 20

